2024/bazaar/img/bazaar.svg

<svg width="575" height="100" viewBox="0 0 575 100" fill="none" xmlns="http://www.w3.org/2000/svg">
<g clip-path="url(#clip0_4228_3403)">
<path d="M135.42 52.28V93.85C135.42 98.47 136.74 100 138.45 100H97.2305C97.2305 100 113.02 96.92 113.02 84.62V6.15C113.02 1.53 109.99 0 109.99 0H191.41C191.41 0 185.59 0.8 185.59 3.26V93.85C185.59 98.47 186.91 100 188.62 100H154.24C154.24 100 163.19 98.93 163.19 84.62V52.28H135.42ZM135.42 47.73H163.19V4.55H151.21C146.42 4.55 135.42 5.4 135.42 15.38V47.72V47.73Z" fill="#FF0084"/>
<path d="M416.814 52.28V93.85C416.814 98.47 418.12 100 419.812 100H379.029C379.029 100 394.652 96.92 394.652 84.62V6.15C394.652 1.53 391.654 0 391.654 0H472.209C472.209 0 466.451 0.8 466.451 3.26V93.85C466.451 98.47 467.757 100 469.449 100H435.434C435.434 100 444.289 98.93 444.289 84.62V52.28H416.814ZM416.814 47.73H444.289V4.55H432.436C427.697 4.55 416.814 5.4 416.814 15.38V47.72V47.73Z" fill="#FF0084"/>
<path d="M99.28 68.69C99.28 89.57 77.1 100 68.37 100H0C0 100 15.79 96.92 15.79 84.62V6.15C15.79 1.53 12.76 0 12.76 0H78.32L99.28 20.96C99.28 35.17 89 44.55 79.68 49.08L99.28 68.68V68.69ZM78.32 49.72C74.46 51.42 70.87 52.28 68.37 52.28C59.64 52.28 38.19 52.28 38.19 52.28V89.1C38.19 93.72 39.51 95.25 41.22 95.25H48.81C64.04 95.25 78.31 85.65 78.31 69.26V49.71L78.32 49.72ZM78.32 4.56H53.99C49.2 4.56 38.2 5.41 38.2 15.39V47.73H48.83C64.06 47.73 78.33 37.93 78.33 21.54V4.55L78.32 4.56Z" fill="#FF0084"/>
<path d="M565.56 99.67L574.68 100L530.46 52.19H539.26C541.75 52.19 545.34 51.33 549.19 49.63L550.55 49.01C559.85 44.48 570.12 35.12 570.12 20.93L549.19 0H483.74C483.74 0 486.77 1.54 486.77 6.14V84.47C486.77 96.76 471 99.83 471 99.83H512.16C512.16 99.83 509.13 98.29 509.13 93.69C509.13 93.69 509.13 69.49 509.13 52.19C509.13 52.19 514.97 52.19 521.78 52.19L565.55 99.67H565.56ZM509.13 15.36C509.13 5.39 520.12 4.54 524.9 4.54H547.04L549.19 6.69V21.5C549.19 37.86 534.95 47.65 519.74 47.65H509.13V15.36Z" fill="#FF0084"/>
<path d="M283.55 0.0700098L265.83 0.0600098L200.97 0.0100098V16.16C200.97 16.16 203.19 5.82001 211.55 5.82001H260.46L198.26 99.94H199.55L282.13 100.01V83.86C282.13 83.86 279.91 94.2 271.55 94.2H221.34L283.53 0.0800098H283.55V0.0700098Z" fill="#FF0084"/>
<path d="M324.785 52.28V93.85C324.785 98.47 326.09 100 327.782 100H287C287 100 302.622 96.92 302.622 84.62V6.15C302.622 1.53 299.625 0 299.625 0H380.18C380.18 0 374.422 0.8 374.422 3.26V93.85C374.422 98.47 375.728 100 377.42 100H343.405C343.405 100 352.26 98.93 352.26 84.62V52.28H324.785ZM324.785 47.73H352.26V4.55H340.407C335.668 4.55 324.785 5.4 324.785 15.38V47.72V47.73Z" fill="#FF0084"/>
</g>
<defs>
<clipPath id="clip0_4228_3403">
<rect width="574.68" height="100" fill="white"/>
</clipPath>
</defs>
</svg>

<svg xmlns="http://www.w3.org/2000/svg" width="575" height="100" fill="none" viewBox="0 0 575 100"><g fill="#ff0084" clip-path="url(#a)"><path d="M135.42 52.28v41.57c0 4.62 1.32 6.15 3.03 6.15H97.23s15.79-3.08 15.79-15.38V6.15c0-4.62-3.03-6.15-3.03-6.15h81.42s-5.82.8-5.82 3.26v90.59c0 4.62 1.32 6.15 3.03 6.15h-34.38s8.95-1.07 8.95-15.38V52.28zm0-4.55h27.77V4.55h-11.98c-4.79 0-15.79.85-15.79 10.83zm281.39 4.55v41.57c0 4.62 1.31 6.15 3 6.15h-40.78s15.62-3.08 15.62-15.38V6.15c0-4.62-3-6.15-3-6.15h80.56s-5.76.8-5.76 3.26v90.59c0 4.62 1.3 6.15 3 6.15h-34.02s8.86-1.07 8.86-15.38V52.28zm0-4.55h27.48V4.55h-11.85c-4.74 0-15.63.85-15.63 10.83zM99.28 68.69C99.28 89.57 77.1 100 68.37 100H0s15.79-3.08 15.79-15.38V6.15c0-4.62-3.03-6.15-3.03-6.15h65.56l20.96 20.96c0 14.21-10.28 23.59-19.6 28.12zM78.32 49.72c-3.86 1.7-7.45 2.56-9.95 2.56H38.19V89.1c0 4.62 1.32 6.15 3.03 6.15h7.59c15.23 0 29.5-9.6 29.5-25.99zm0-45.16H53.99c-4.79 0-15.79.85-15.79 10.83v32.34h10.63c15.23 0 29.5-9.8 29.5-26.19V4.55zm487.24 95.11 9.12.33-44.22-47.81h8.8c2.49 0 6.08-.86 9.93-2.56l1.36-.62c9.3-4.53 19.57-13.89 19.57-28.08L549.19 0h-65.45s3.03 1.54 3.03 6.14v78.33c0 12.29-15.77 15.36-15.77 15.36h41.16s-3.03-1.54-3.03-6.14v-41.5h12.65zm-56.43-84.31c0-9.97 10.99-10.82 15.77-10.82h22.14l2.15 2.15V21.5c0 16.36-14.24 26.15-29.45 26.15h-10.61zM283.55.07 265.83.06 200.97.01v16.15s2.22-10.34 10.58-10.34h48.91l-62.2 94.12h1.29l82.58.07V83.86s-2.22 10.34-10.58 10.34h-50.21L283.53.08zm41.24 52.21v41.57c0 4.62 1.3 6.15 3 6.15H287s15.62-3.08 15.62-15.38V6.15c0-4.62-3-6.15-3-6.15h80.56s-5.76.8-5.76 3.26v90.59c0 4.62 1.3 6.15 3 6.15H343.4s8.86-1.07 8.86-15.38V52.28zm0-4.55h27.47V4.55h-11.85c-4.74 0-15.62.85-15.62 10.83z"/></g><defs><clipPath id="a"><path fill="#fff" d="M0 0h574.68v100H0z"/></clipPath></defs></svg>
